X:441
T: Die Reise nach Frankreich (157b), S. 344
N: T0329
O: Luxemburg
S: Singendes Volk, Esch-Alzette 1937, posth.]
N: Blascheid, hhh Nikolaus Perl, 1903
R: historische, Kriegs- und Soldatenlieder, Liebeslied]
M: 3/4
L: 1/8
K: G
G2 | G2D2G2 | GBB2
G2 | F2G2B2 | A2z2
AB | c3BdB | d3c
B2 | A2d2c2 | B2z2

